img/about/location.svg

<svg width="21" height="21" viewBox="0 0 21 21" fill="none" xmlns="http://www.w3.org/2000/svg">
<g id="location 1" clip-path="url(#clip0_3059_222398)">
<g id="Group">
<path id="Vector" d="M18.4357 14.5217C18.1521 14.366 17.7959 14.4696 17.6402 14.7531C17.4844 15.0367 17.588 15.3928 17.8716 15.5486C18.5694 15.9319 18.9696 16.3569 18.9696 16.7146C18.9696 17.152 18.3498 17.83 16.6103 18.421C14.8917 19.0049 12.5951 19.3264 10.1435 19.3264C7.69193 19.3264 5.39532 19.0049 3.67677 18.421C1.93721 17.83 1.31743 17.152 1.31743 16.7146C1.31743 16.3569 1.71765 15.9319 2.41546 15.5485C2.69903 15.3928 2.8026 15.0366 2.64681 14.7531C2.49103 14.4695 2.13498 14.3659 1.85133 14.5217C1.07331 14.9491 0.145828 15.6766 0.145828 16.7146C0.145828 17.5102 0.693045 18.6447 3.29986 19.5303C5.13663 20.1543 7.56708 20.498 10.1435 20.498C12.7199 20.498 15.1504 20.1543 16.9872 19.5303C19.594 18.6447 20.1412 17.5102 20.1412 16.7146C20.1412 15.6766 19.2137 14.9491 18.4357 14.5217Z" fill="#FFD600"/>
<path id="Vector_2" d="M5.72152 17.5746C6.91069 17.9105 8.48138 18.0956 10.1442 18.0956C11.8071 18.0956 13.3778 17.9106 14.567 17.5746C16.0218 17.1636 16.7595 16.5687 16.7595 15.8064C16.7595 15.0442 16.0218 14.4493 14.567 14.0383C14.244 13.9471 13.8927 13.8671 13.5193 13.7988C13.3165 14.1492 13.104 14.5099 12.8819 14.8809C13.2952 14.9429 13.6833 15.019 14.0357 15.1088C15.1064 15.3815 15.4975 15.6885 15.5779 15.8065C15.4975 15.9245 15.1064 16.2315 14.0357 16.5042C13.0223 16.7623 11.7185 16.9096 10.3453 16.9227C10.2787 16.9276 10.2117 16.9304 10.1442 16.9304C10.0767 16.9304 10.0097 16.9276 9.94319 16.9227C8.56996 16.9096 7.26612 16.7624 6.25272 16.5042C5.18203 16.2315 4.79091 15.9245 4.7105 15.8065C4.79091 15.6885 5.18207 15.3815 6.25276 15.1088C6.60518 15.019 6.99325 14.9429 7.40663 14.8809C7.18446 14.5099 6.97197 14.1492 6.76916 13.7988C6.39573 13.8671 6.04445 13.9471 5.72152 14.0383C4.26666 14.4493 3.52898 15.0442 3.52898 15.8064C3.52898 16.5687 4.26666 17.1636 5.72152 17.5746Z" fill="#FFD600"/>
<path id="Vector_3" d="M10.144 15.7576C10.6654 15.7576 11.1391 15.4918 11.4112 15.0468C13.3174 11.9281 15.5896 7.81784 15.5896 5.94753C15.5896 2.94482 13.1467 0.501953 10.144 0.501953C7.14122 0.501953 4.69835 2.94482 4.69835 5.94753C4.69835 7.81784 6.9706 11.9281 8.87676 15.0468C9.1488 15.4918 9.62252 15.7576 10.144 15.7576ZM7.95513 5.57363C7.95513 4.36676 8.93706 3.38488 10.144 3.38488C11.3509 3.38488 12.3328 4.36676 12.3328 5.57363C12.3328 6.78054 11.3509 7.76242 10.144 7.76242C8.93706 7.76242 7.95513 6.78058 7.95513 5.57363Z" fill="#FFD600"/>
</g>
</g>
<defs>
<clipPath id="clip0_3059_222398">
<rect width="19.9954" height="19.9954" fill="white" transform="translate(0.145828 0.501953)"/>
</clipPath>
</defs>
</svg>

<svg width="21" height="21" fill="none" xmlns="http://www.w3.org/2000/svg"><g fill="#FFD600" clip-path="url(#a)"><path d="M18.436 14.522a.586.586 0 0 0-.564 1.027c.697.383 1.098.808 1.098 1.166 0 .437-.62 1.115-2.36 1.706-1.718.584-4.015.905-6.466.905-2.452 0-4.749-.321-6.467-.905-1.74-.591-2.36-1.269-2.36-1.706 0-.358.4-.783 1.098-1.166a.586.586 0 1 0-.564-1.027c-.778.427-1.705 1.155-1.705 2.193 0 .795.547 1.93 3.154 2.815 1.837.624 4.267.968 6.843.968 2.577 0 5.007-.344 6.844-.968 2.607-.885 3.154-2.02 3.154-2.815 0-1.038-.927-1.766-1.705-2.193Z"/><path d="M5.722 17.575c1.189.335 2.76.52 4.422.52 1.663 0 3.234-.184 4.423-.52 1.455-.411 2.192-1.006 2.192-1.769 0-.762-.737-1.357-2.192-1.768a11.47 11.47 0 0 0-1.048-.24c-.203.351-.415.712-.637 1.083.413.062.801.138 1.154.228 1.07.273 1.462.58 1.542.697-.08.119-.472.426-1.542.698-1.014.258-2.317.406-3.69.419a2.739 2.739 0 0 1-.403 0c-1.373-.013-2.677-.16-3.69-.419-1.071-.273-1.462-.58-1.543-.698.08-.117.472-.424 1.543-.697.352-.09.74-.166 1.154-.228a84.444 84.444 0 0 1-.638-1.082 11.46 11.46 0 0 0-1.047.24c-1.455.41-2.193 1.005-2.193 1.767 0 .763.738 1.358 2.193 1.769Z"/><path d="M10.144 15.758c.521 0 .995-.266 1.267-.711 1.906-3.119 4.179-7.23 4.179-9.1A5.452 5.452 0 0 0 10.144.503a5.452 5.452 0 0 0-5.446 5.446c0 1.87 2.273 5.98 4.179 9.099.272.445.746.71 1.267.71ZM7.955 5.574c0-1.207.982-2.19 2.189-2.19s2.189.983 2.189 2.19a2.191 2.191 0 0 1-2.189 2.188 2.191 2.191 0 0 1-2.189-2.188Z"/></g><defs><clipPath id="a"><path fill="#fff" transform="translate(.146 .502)" d="M0 0h19.995v19.995H0z"/></clipPath></defs></svg>
